X: 8918
T: Curlews, The
R: reel
M: 4/4
K: Bminor
|:fB B2 Bcde|fece a3e|(3fga ed cA A2|^GAce a^gba|
fB B2 Bcde|fece a3f|=g3e f3e|dBBA FB B2:|
|:(3Bcd cd BF F2|DF F2 Bcdf|ecBc AE E2|cEAB cedc|
(3Bcd cd BF F2|DF F2 Bcdf|ecBc fcec|dcBA FB B2:|

